X: 41688
T: Vaarin Hambo
R: waltz
M: 3/4
K: Gmajor
M:9/8
d3- dcB|:G2E- E2E F2G|D2B,- B,2B, C2B,|A,2G- G2G- GAG|F2D-D2d- dcB|
G2E- E2E F2G|D2B,- B,2B, C2D|E2G F3 D2E|1 E3- E2d- dcB:|2 E3- E2B, C2D ]|
|:E3- E2E F2G|D3- D2E F2G|C3- C2E F2G|B,3- B,2D F2G|
A3- A2D G2A|B3- B2G A2B|c3- c2A c2e|d3 d3- dcB|
G2E- E2E F2G|D2B,- B,2B, C2B,|A,2G- G2G- GAG|F2D-D2d- dcB|
G2E- E2E F2G|D2B,- B,2B, C2D|E2G F3 D2E|1 E3- E2B, C2D:|2 E3||

